X:726
T:Billy In the Low Ground II
S:Various
Z:Nigel Gatherer
M:4/4
L:1/8
K:C
C3   D EGAB  | cBcd cA G2 | ABAG  EGGA  | GECE  DC A,2 |
G,A,CD EGAB  | cded cA G2 | ABAG  EDCD  | ECDB, C4    :|
C3   e g2 ga | gedg ec c2 | Acfg  a2 g2 | agec  d2 ef  |
gega   g2 ed | cBcd c2 cB | A2 e2 dcAG  | cAGE  C4   :|]
<end>
<start>
